X: 39035
T: Swan, The
R: hornpipe
M: 4/4
K: Amajor
(3EFG|A2 (3cBA EAce|a2 ga (3fga ec|d2 fd c2 ec|BEGB edcB|
A2 (3cBA EAce|a2 ga (3fga ec|d2 fd c2 ec|BEGB A2:|
(3efg|ace=g fAdf|{g}fecA BEGB|Acec dfba|(3gab fb ebgb|
(3aba e=g fAdf|(3efe cA BEGB|Acec dfba|1 (3gfe (3dcB A2:|2 gec'b a2 z2||

